; generated by PrusaSlicer 2.4.0-beta1+win64 on 2021-11-11 at 00:04:43 UTC


;
;

;
;
; Infill
; Rectilinear         2.22
; Aligned Rectilinear 2.23
; Grid                2.26
; Triangles           2.24
; Stars               2.20
; Cubic               2.22
; Line                2.07
; Concentric          2.57
; Honeycomb           2.36
; 3D Honeycomb        2.40
; Gyroid              2.27
; Hilbert Curve       2.25
; Archimedian Chords  2.21
; Octagram Spiral     2.34
; Adaptive Curve      2.14
; Support Cubic       2.14

; external perimeters extrusion width = 0.45mm
; perimeters extrusion width = 0.45mm
; infill extrusion width = 0.45mm
; solid infill extrusion width = 0.45mm
; top infill extrusion width = 0.40mm
; first layer extrusion width = 0.42mm

M73 P0 R73
M73 Q0 S77
M201 X9000 Y9000 Z500 E10000 ; sets maximum accelerations, mm/sec^2
M203 X500 Y500 Z12 E120 ; sets maximum feedrates, mm/sec
M204 P1500 R1500 T1500 ; sets acceleration (P, T) and retract acceleration (R), mm/sec^2
M205 X10.00 Y10.00 Z0.20 E2.50 ; sets the jerk limits, mm/sec
M205 S0 T0 ; sets the minimum extruding and travel feed rate, mm/sec
M107
M190 S70 ; set bed temperature and wait for it to be reached
M104 S210 ; set temperature
;TYPE:Custom
G28 ; home all axes
G1 Z5 F5000 ; lift nozzle
M109 S210 ; set temperature and wait for it to be reached
G21 ; set units to millimeters
G90 ; use absolute coordinates
M82 ; use absolute distances for extrusion
G92 E0
; Filament gcode
M107
;LAYER_CHANGE
;Z:0.4
;HEIGHT:0.4
G1 Z.4 F7800
G1 E-1 F2400
G92 E0
G1 Z.9 F7800
G1 X81.76 Y81.705
G1 Z.4
G1 E1 F2400
;TYPE:Skirt/Brim
;WIDTH:0.42
G1 F600
G1 X83.563 Y80.069 E1.13525
G1 X85.594 Y78.556 E1.27603
G1 X87.734 Y77.265 E1.41489
G1 X90.361 Y76.032 E1.57618
G1 X92.755 Y75.203 E1.71695
G1 X95.197 Y74.616 E1.85655
G1 X97.608 Y74.277 E1.99184
G1 X100.139 Y74.167 E2.1326
G1 X102.47 Y74.284 E2.26233
G1 X105.041 Y74.663 E2.40672
G1 X107.851 Y75.388 E2.568
G1 X110.132 Y76.236 E2.70324
G1 X112.411 Y77.342 E2.84402
G1 X114.488 Y78.611 E2.97928
G1 X116.498 Y80.119 E3.11889
G1 X118.295 Y81.76 E3.25415
G1 X119.931 Y83.563 E3.3894
G1 X121.444 Y85.594 E3.53018
G1 X122.705 Y87.676 E3.66543
G1 X123.968 Y90.361 E3.83031
G1 X124.797 Y92.755 E3.97111
G1 X125.369 Y95.121 E4.10636
G1 X125.723 Y97.608 E4.24596
G1 X125.834 Y100.039 E4.38122
G1 X125.716 Y102.47 E4.51647
G1 X125.35 Y104.977 E4.65726
G1 X124.769 Y107.341 E4.7925
G1 X123.764 Y110.132 E4.95738
G1 X122.658 Y112.411 E5.09817
G1 X121.389 Y114.489 E5.23343
G1 X119.881 Y116.498 E5.37304
G1 X118.24 Y118.295 E5.50829
G1 X116.437 Y119.931 E5.64354
G1 X114.406 Y121.444 E5.78432
G1 X112.266 Y122.735 E5.92318
G1 X109.639 Y123.968 E6.08447
G1 X107.245 Y124.797 E6.22524
G1 X104.88 Y125.369 E6.36048
G1 X102.47 Y125.716 E6.49576
G1 X99.961 Y125.834 E6.63537
G1 X97.53 Y125.716 E6.77062
G1 X95.024 Y125.35 E6.91136
G1 X92.659 Y124.769 E7.04666
G1 X89.868 Y123.764 E7.21154
G1 X87.589 Y122.658 E7.35231
G1 X85.512 Y121.389 E7.48756
G1 X83.563 Y119.931 E7.62283
G1 X81.705 Y118.24 E7.76244
G1 X80.069 Y116.437 E7.89769
G1 X78.556 Y114.406 E8.03847
G1 X77.295 Y112.324 E8.17373
G1 X76.032 Y109.639 E8.33861
G1 X75.203 Y107.245 E8.4794
G1 X74.631 Y104.879 E8.61465
G1 X74.277 Y102.392 E8.75425
G1 X74.166 Y99.961 E8.88951
G1 X74.284 Y97.53 E9.02476
G1 X74.65 Y95.023 E9.16555
G1 X75.231 Y92.659 E9.3008
G1 X76.236 Y89.868 E9.46568
G1 X77.342 Y87.589 E9.60647
G1 X78.611 Y85.512 E9.74172
G1 X80.119 Y83.502 E9.88133
G1 X81.72 Y81.749 E10.01325
G1 E9.01325 F2400
G92 E0
G1 Z.9 F7800
G1 X86.59 Y86.524
G1 Z.4
G1 E1 F2400
G1 F600
G1 X87.079 Y86.056 E1.03762
G1 X87.908 Y85.33 E1.09886
G1 X88.451 Y84.9 E1.13731
G1 X89.377 Y84.234 E1.20074
G1 X90.246 Y83.682 E1.25795
G1 X90.951 Y83.281 E1.30302
G1 X91.927 Y82.788 E1.36376
G1 X92.93 Y82.353 E1.42451
G1 X94.031 Y81.951 E1.48965
G1 X94.66 Y81.754 E1.5263
G1 X95.366 Y81.563 E1.5669
G1 X96.471 Y81.319 E1.6298
G1 X97.154 Y81.204 E1.66828
G1 X98.287 Y81.066 E1.73171
G1 X99.314 Y81.002 E1.78892
G1 X100.125 Y80.99 E1.83397
G1 X101.207 Y81.027 E1.89415
G1 X102.291 Y81.128 E1.95462
G1 X103.063 Y81.238 E1.998
G1 X104.059 Y81.428 E2.05431
G1 X104.82 Y81.61 E2.0978
G1 X105.891 Y81.924 E2.15982
G1 X106.554 Y82.155 E2.19886
G1 X107.47 Y82.518 E2.2536
G1 X108.207 Y82.852 E2.29855
G1 X109.189 Y83.357 E2.3599
G1 X109.785 Y83.702 E2.39821
G1 X110.71 Y84.292 E2.45917
G1 X111.253 Y84.677 E2.49615
G1 X112.144 Y85.373 E2.559
G1 X112.668 Y85.826 E2.59747
G1 X113.495 Y86.61 E2.66082
G1 X114.179 Y87.337 E2.71627
G1 X114.627 Y87.856 E2.75436
G1 X115.305 Y88.724 E2.81558
G1 X115.714 Y89.3 E2.85486
G1 X116.314 Y90.239 E2.91676
G1 X116.646 Y90.816 E2.95378
G1 X117.161 Y91.82 E3.01645
G1 X117.482 Y92.532 E3.05985
G1 X117.846 Y93.448 E3.11463
G1 X118.108 Y94.212 E3.15953
G1 X118.41 Y95.259 E3.22009
G1 X118.65 Y96.315 E3.28028
G1 X118.79 Y97.114 E3.32533
G1 X118.919 Y98.135 E3.38254
G1 X118.996 Y99.274 E3.44596
G1 X119.011 Y99.983 E3.48539
G1 X118.977 Y101.135 E3.54943
G1 X118.873 Y102.286 E3.61366
G1 X118.762 Y103.063 E3.65727
G1 X118.572 Y104.059 E3.71359
G1 X118.391 Y104.815 E3.75684
G1 X118.104 Y105.803 E3.81398
G1 X117.712 Y106.905 E3.87901
G1 X117.465 Y107.51 E3.91532
G1 X117.162 Y108.178 E3.95604
G1 X116.691 Y109.102 E4.01369
G1 X116.104 Y110.102 E4.07815
G1 X115.74 Y110.662 E4.11524
G1 X115.098 Y111.552 E4.1762
G1 X114.67 Y112.092 E4.21451
G1 X113.944 Y112.922 E4.27579
G1 X113.429 Y113.457 E4.31707
G1 X112.921 Y113.944 E4.35616
G1 X112.092 Y114.67 E4.41742
G1 X111.55 Y115.099 E4.45582
G1 X110.633 Y115.76 E4.51865
G1 X109.757 Y116.316 E4.57628
G1 X109.127 Y116.677 E4.61663
G1 X108.516 Y116.996 E4.65497
G1 X107.48 Y117.478 E4.71842
G1 X106.527 Y117.855 E4.77541
G1 X105.902 Y118.072 E4.81218
G1 X104.819 Y118.39 E4.87485
G1 X104.055 Y118.573 E4.91854
G1 X102.964 Y118.779 E4.98025
G1 X101.868 Y118.919 E5.04167
G1 X100.696 Y118.998 E5.10694
G1 X99.952 Y119.011 E5.14829
G1 X99.274 Y118.996 E5.18596
G1 X98.135 Y118.919 E5.24938
G1 X97.114 Y118.79 E5.30659
G1 X96.315 Y118.65 E5.35165
G1 X95.259 Y118.41 E5.41183
G1 X94.212 Y118.108 E5.47239
G1 X93.448 Y117.846 E5.5173
G1 X92.53 Y117.482 E5.57216
G1 X91.798 Y117.15 E5.61686
G1 X90.906 Y116.695 E5.67246
G1 X89.898 Y116.104 E5.73741
G1 X89.35 Y115.748 E5.77372
G1 X88.748 Y115.323 E5.81465
G1 X87.856 Y114.627 E5.87755
G1 X87.334 Y114.176 E5.91589
G1 X86.542 Y113.428 E5.9764
G1 X85.823 Y112.665 E6.03468
G1 X85.373 Y112.144 E6.07291
G1 X84.695 Y111.276 E6.13414
G1 X84.295 Y110.714 E6.17249
G1 X83.686 Y109.761 E6.23532
G1 X83.354 Y109.184 E6.27231
G1 X82.852 Y108.206 E6.33339
G1 X82.518 Y107.47 E6.37832
G1 X82.154 Y106.552 E6.43319
G1 X81.892 Y105.788 E6.47809
G1 X81.59 Y104.741 E6.53865
G1 X81.35 Y103.685 E6.59884
G1 X81.21 Y102.886 E6.64389
G1 X81.081 Y101.865 E6.7011
G1 X81.004 Y100.726 E6.76452
G1 X80.989 Y100.017 E6.80395
G1 X81.023 Y98.865 E6.86799
G1 X81.127 Y97.714 E6.93222
G1 X81.238 Y96.937 E6.97583
G1 X81.428 Y95.941 E7.03215
G1 X81.609 Y95.185 E7.07539
G1 X81.896 Y94.197 E7.13254
G1 X82.288 Y93.095 E7.19756
G1 X82.535 Y92.49 E7.23388
G1 X82.838 Y91.823 E7.27459
G1 X83.309 Y90.899 E7.33223
G1 X83.896 Y89.898 E7.39669
G1 X84.26 Y89.338 E7.4338
G1 X84.902 Y88.448 E7.49476
G1 X85.33 Y87.908 E7.53307
G1 X86.057 Y87.078 E7.59437
G1 X86.549 Y86.567 E7.63379
G1 X86.789 Y86.799 F7800
G1 F600
G1 X87.302 Y86.305 E7.67337
G1 X88.119 Y85.589 E7.73372
G1 X88.649 Y85.169 E7.7713
G1 X89.56 Y84.513 E7.8337
G1 X90.422 Y83.966 E7.89041
G1 X91.106 Y83.578 E7.93412
G1 X92.073 Y83.089 E7.99437
G1 X93.058 Y82.661 E8.05402
G1 X94.142 Y82.266 E8.1181
G1 X94.757 Y82.074 E8.15393
G1 X95.441 Y81.888 E8.19335
G1 X96.53 Y81.648 E8.25532
G1 X97.198 Y81.535 E8.29294
G1 X98.313 Y81.399 E8.35533
G1 X99.331 Y81.335 E8.41204
G1 X100.117 Y81.324 E8.45574
G1 X101.191 Y81.361 E8.51543
G1 X102.256 Y81.46 E8.57486
G1 X103.005 Y81.567 E8.6169
G1 X103.992 Y81.755 E8.67278
G1 X104.73 Y81.932 E8.71492
G1 X105.793 Y82.244 E8.77648
G1 X106.434 Y82.467 E8.81423
G1 X107.343 Y82.827 E8.86856
G1 X108.058 Y83.151 E8.91215
G1 X109.025 Y83.648 E8.97259
G1 X109.609 Y83.985 E9.01005
G1 X110.52 Y84.567 E9.07013
G1 X111.05 Y84.943 E9.10626
G1 X111.929 Y85.629 E9.16819
G1 X112.441 Y86.071 E9.20579
G1 X113.255 Y86.842 E9.26812
G1 X113.933 Y87.563 E9.3231
G1 X114.371 Y88.071 E9.36037
G1 X115.039 Y88.927 E9.4207
G1 X115.435 Y89.483 E9.45865
G1 X116.03 Y90.416 E9.52011
G1 X116.354 Y90.98 E9.55627
G1 X116.862 Y91.969 E9.61804
G1 X117.173 Y92.658 E9.6601
G1 X117.534 Y93.567 E9.71444
G1 X117.788 Y94.309 E9.758
G1 X118.086 Y95.338 E9.81752
G1 X118.323 Y96.385 E9.87721
G1 X118.459 Y97.16 E9.92091
G1 X118.587 Y98.172 E9.97762
G1 X118.663 Y99.293 E10.04002
G1 X118.677 Y99.978 E10.0781
G1 X118.644 Y101.11 E10.14105
G1 X118.54 Y102.252 E10.20476
G1 X118.433 Y103.005 E10.24701
G1 X118.245 Y103.992 E10.30289
G1 X118.069 Y104.726 E10.34483
G1 X117.784 Y105.705 E10.40147
G1 X117.399 Y106.79 E10.46546
G1 X117.157 Y107.381 E10.50096
G1 X116.863 Y108.029 E10.54052
G1 X116.395 Y108.946 E10.59768
G1 X115.818 Y109.93 E10.6611
G1 X115.462 Y110.476 E10.69732
G1 X114.829 Y111.353 E10.7574
G1 X114.411 Y111.881 E10.79486
G1 X113.695 Y112.698 E10.85524
G1 X113.195 Y113.218 E10.89532
G1 X112.698 Y113.695 E10.93358
G1 X111.881 Y114.411 E10.99394
G1 X111.352 Y114.83 E11.03148
G1 X110.449 Y115.48 E11.09329
G1 X109.581 Y116.032 E11.15043
G1 X108.97 Y116.382 E11.1896
G1 X108.371 Y116.695 E11.22713
G1 X107.353 Y117.169 E11.28954
G1 X106.407 Y117.543 E11.34606
G1 X105.796 Y117.755 E11.38201
G1 X104.729 Y118.068 E11.44377
G1 X103.989 Y118.246 E11.48609
G1 X102.916 Y118.448 E11.54675
G1 X101.83 Y118.587 E11.6076
G1 X100.677 Y118.664 E11.6718
G1 X99.955 Y118.677 E11.71193
G1 X99.293 Y118.663 E11.74878
G1 X98.172 Y118.587 E11.81118
G1 X97.16 Y118.459 E11.86789
G1 X96.385 Y118.323 E11.91159
G1 X95.338 Y118.086 E11.97128
G1 X94.309 Y117.788 E12.03079
G1 X93.567 Y117.534 E12.07436
G1 X92.657 Y117.173 E12.12878
G1 X91.946 Y116.85 E12.17217
G1 X91.062 Y116.4 E12.22729
G1 X90.07 Y115.818 E12.2912
G1 X89.535 Y115.47 E12.32669
G1 X88.951 Y115.057 E12.36643
G1 X88.071 Y114.371 E12.42841
G1 X87.561 Y113.93 E12.4659
G1 X86.782 Y113.195 E12.5254
G1 X86.069 Y112.438 E12.5832
G1 X85.629 Y111.929 E12.62059
G1 X84.961 Y111.073 E12.68093
G1 X84.57 Y110.524 E12.71842
G1 X83.97 Y109.584 E12.78034
G1 X83.646 Y109.021 E12.81647
G1 X83.151 Y108.057 E12.87666
G1 X82.827 Y107.343 E12.92024
G1 X82.466 Y106.433 E12.97467
G1 X82.212 Y105.691 E13.01823
G1 X81.914 Y104.662 E13.07775
G1 X81.677 Y103.615 E13.13744
G1 X81.541 Y102.84 E13.18114
G1 X81.413 Y101.828 E13.23785
G1 X81.337 Y100.707 E13.30024
G1 X81.323 Y100.022 E13.33833
G1 X81.356 Y98.89 E13.40128
G1 X81.46 Y97.748 E13.46499
G1 X81.567 Y96.995 E13.50724
G1 X81.755 Y96.008 E13.56312
G1 X81.931 Y95.274 E13.60505
G1 X82.216 Y94.295 E13.6617
G1 X82.601 Y93.21 E13.72569
G1 X82.843 Y92.619 E13.76119
G1 X83.137 Y91.971 E13.80073
G1 X83.605 Y91.055 E13.85789
G1 X84.182 Y90.07 E13.92131
G1 X84.538 Y89.524 E13.95754
G1 X85.171 Y88.647 E14.01763
G1 X85.589 Y88.119 E14.05509
G1 X86.305 Y87.301 E14.11548
G1 X86.748 Y86.842 E14.1509
G1 X86.988 Y87.074 F7800
G1 F600
G1 X87.525 Y86.553 E14.19247
G1 X88.33 Y85.848 E14.25191
G1 X88.847 Y85.438 E14.28863
G1 X89.744 Y84.793 E14.34999
G1 X90.598 Y84.251 E14.4062
G1 X91.26 Y83.874 E14.44857
G1 X92.211 Y83.393 E14.50777
G1 X93.187 Y82.97 E14.56687
G1 X94.252 Y82.582 E14.62989
G1 X94.853 Y82.394 E14.66489
G1 X95.517 Y82.214 E14.70313
G1 X96.59 Y81.977 E14.76419
G1 X97.242 Y81.866 E14.80093
G1 X98.338 Y81.733 E14.8623
G1 X99.348 Y81.669 E14.91851
G1 X100.11 Y81.658 E14.96086
G1 X101.165 Y81.694 E15.0195
G1 X102.221 Y81.792 E15.07844
G1 X102.946 Y81.896 E15.11914
G1 X103.926 Y82.083 E15.17458
G1 X104.64 Y82.254 E15.21538
G1 X105.695 Y82.563 E15.27648
G1 X106.314 Y82.779 E15.31295
G1 X107.216 Y83.137 E15.36685
M73 P1 R73
G1 X107.909 Y83.45 E15.4091
G1 X108.862 Y83.94 E15.46863
G1 X109.432 Y84.269 E15.50523
G1 X110.33 Y84.842 E15.56443
G1 X110.848 Y85.209 E15.5997
G1 X111.714 Y85.884 E15.66072
G1 X112.214 Y86.316 E15.69746
G1 X113.015 Y87.075 E15.75875
G1 X113.687 Y87.79 E15.81327
G1 X114.116 Y88.286 E15.84971
G1 X114.773 Y89.129 E15.90915
G1 X115.155 Y89.667 E15.94579
G1 X115.746 Y90.592 E16.0068
G1 X116.063 Y91.143 E16.0421
G1 X116.562 Y92.117 E16.10296
G1 X116.864 Y92.785 E16.14368
G1 X117.221 Y93.687 E16.19759
G1 X117.468 Y94.406 E16.23981
G1 X117.763 Y95.426 E16.29882
G1 X117.996 Y96.455 E16.35747
G1 X118.128 Y97.206 E16.39983
G1 X118.255 Y98.209 E16.45603
G1 X118.329 Y99.311 E16.5174
G1 X118.343 Y99.972 E16.55415
M73 Q1 S77
G1 X118.31 Y101.095 E16.61658
G1 X118.208 Y102.217 E16.6792
G1 X118.104 Y102.946 E16.72009
G1 X117.917 Y103.926 E16.77553
G1 X117.747 Y104.637 E16.81615
G1 X117.465 Y105.607 E16.8723
M73 Q1 S76
G1 X117.085 Y106.674 E16.93525
G1 X116.849 Y107.251 E16.96993
G1 X116.563 Y107.881 E17.00833
G1 X116.1 Y108.789 E17.06501
G1 X115.532 Y109.758 E17.12738
G1 X115.185 Y110.291 E17.16273
G1 X114.561 Y111.154 E17.22193
G1 X114.152 Y111.67 E17.25854
G1 X113.446 Y112.475 E17.31801
G1 X112.961 Y112.98 E17.3569
G1 X112.475 Y113.446 E17.39435
G1 X111.67 Y114.152 E17.45381
G1 X111.153 Y114.561 E17.49048
G1 X110.266 Y115.201 E17.55126
G1 X109.405 Y115.748 E17.60792
G1 X108.812 Y116.088 E17.64592
G1 X108.227 Y116.394 E17.68262
G1 X107.225 Y116.86 E17.74401
G1 X106.288 Y117.231 E17.80005
G1 X105.69 Y117.438 E17.83517
G1 X104.639 Y117.746 E17.89602
G1 X103.923 Y117.918 E17.93697
G1 X102.869 Y118.117 E17.99658
G1 X101.793 Y118.255 E18.05688
G1 X100.659 Y118.331 E18.12
G1 X99.959 Y118.343 E18.15891
G1 X99.311 Y118.329 E18.19494
G1 X98.209 Y118.255 E18.25631
G1 X97.206 Y118.128 E18.31252
G1 X96.455 Y117.996 E18.35487
G1 X95.426 Y117.763 E18.41352
G1 X94.406 Y117.468 E18.47253
G1 X93.687 Y117.221 E18.51475
G1 X92.784 Y116.863 E18.56874
G1 X92.094 Y116.551 E18.61081
G1 X91.219 Y116.104 E18.66544
G1 X90.243 Y115.532 E18.72832
G1 X89.72 Y115.191 E18.76299
G1 X89.153 Y114.791 E18.80155
G1 X88.286 Y114.116 E18.86261
G1 X87.787 Y113.685 E18.89925
G1 X87.022 Y112.963 E18.95773
G1 X86.314 Y112.212 E19.01506
G1 X85.885 Y111.714 E19.05161
G1 X85.227 Y110.871 E19.11104
G1 X84.845 Y110.333 E19.14768
G1 X84.254 Y109.408 E19.2087
G1 X83.937 Y108.858 E19.24397
G1 X83.45 Y107.908 E19.30326
G1 X83.137 Y107.216 E19.3455
G1 X82.779 Y106.313 E19.39949
G1 X82.532 Y105.594 E19.44171
G1 X82.237 Y104.574 E19.50072
G1 X82.004 Y103.545 E19.55937
G1 X81.872 Y102.794 E19.60172
G1 X81.745 Y101.791 E19.65793
G1 X81.671 Y100.689 E19.7193
G1 X81.657 Y100.028 E19.75604
G1 X81.69 Y98.905 E19.81847
G1 X81.792 Y97.783 E19.8811
G1 X81.896 Y97.054 E19.92199
G1 X82.083 Y96.074 E19.97742
G1 X82.253 Y95.363 E20.01805
G1 X82.535 Y94.393 E20.0742
G1 X82.915 Y93.326 E20.13715
G1 X83.151 Y92.749 E20.17182
G1 X83.437 Y92.119 E20.21021
G1 X83.9 Y91.211 E20.26688
G1 X84.468 Y90.243 E20.32927
G1 X84.815 Y89.709 E20.36463
G1 X85.439 Y88.846 E20.42383
G1 X85.848 Y88.33 E20.46044
G1 X86.554 Y87.525 E20.51993
G1 X86.946 Y87.117 E20.55136
G1 X87.187 Y87.349 F7800
G1 F600
G1 X87.748 Y86.802 E20.5949
G1 X88.541 Y86.108 E20.65345
G1 X89.046 Y85.707 E20.6893
G1 X89.927 Y85.072 E20.74963
G1 X90.773 Y84.535 E20.80534
G1 X91.415 Y84.17 E20.84635
G1 X92.349 Y83.698 E20.90451
G1 X93.315 Y83.278 E20.96305
G1 X94.363 Y82.897 E21.02501
G1 X94.95 Y82.714 E21.05918
G1 X95.594 Y82.539 E21.09625
G1 X96.65 Y82.305 E21.15639
G1 X97.287 Y82.198 E21.19226
G1 X98.364 Y82.066 E21.2526
G1 X99.365 Y82.003 E21.30831
G1 X100.103 Y81.992 E21.34931
G1 X101.148 Y82.028 E21.40745
G1 X102.186 Y82.125 E21.46534
G1 X102.887 Y82.225 E21.50472
G1 X103.859 Y82.41 E21.55972
G1 X104.55 Y82.576 E21.59918
G1 X105.589 Y82.88 E21.65936
G1 X106.195 Y83.091 E21.695
G1 X107.089 Y83.446 E21.74847
G1 X107.76 Y83.75 E21.78938
G1 X108.698 Y84.231 E21.848
G1 X109.256 Y84.553 E21.88375
G1 X110.14 Y85.117 E21.94207
G1 X110.645 Y85.475 E21.97648
G1 X111.499 Y86.14 E22.03659
G1 X111.987 Y86.562 E22.07246
G1 X112.775 Y87.307 E22.13273
G1 X113.441 Y88.016 E22.18677
G1 X113.86 Y88.501 E22.22239
G1 X114.508 Y89.332 E22.28093
G1 X114.881 Y89.857 E22.31671
G1 X115.462 Y90.769 E22.37682
G1 X115.771 Y91.306 E22.41125
